X: 30022
T: Off She Goes
R: polka
M: 2/4
K: Cmajor
|:CE DE|FA FA|EG EG|ED DC|
CE DE|FA FA/F/|EG DE|C2 C2:|
|:cA Bc|EG FA/F/|EG EG|ED Dc|
cA Bc|EG FA/F/|EG DE|C2 C2:|

